X: 6402
T: Castle Kelly
R: reel
M: 4/4
K: Aminor
|:A2 cA ABcA|GEDE G2 EG|A2 cA ABcd|ecdB cA A2:|
agec d2ed|cAGE G2 eg|agec d2cd|eaag a2 za|
agec d2ed|cAGE|G2 EG|A2 cA ABcd|ecdB cA A2|

